!!!COM: Palestrina, Giovanni Perluigi da
!!!OPR: Ave Maria (1594)
!!!OTL: Kyrie
**kern	**kern	**kern	**kern
*Ibass	*Itenor	*Icalto	*Icant
!Bassus	!Tenor	!Altus	!Cantus
*clefF4	*clefGv2	*clefG2	*clefG2
*k[]	*k[]	*k[]	*k[]
*A:aeo	*A:aeo	*A:aeo	*A:aeo
*M4/2	*M4/2	*M4/2	*M4/2
=1	=1	=1	=1
0r	0r	0r	1cc
.	.	.	2g
.	.	.	2g
=2	=2	=2	=2
0r	0r	1f	4a
.	.	.	4b
.	.	.	4cc
.	.	.	4dd
.	.	2c	1ee
.	.	2c	.
=3	=3	=3	=3
0r	0r	4d	1ff
.	.	4e	.
.	.	4f	.
.	.	4g	.
.	.	1a	2ee
.	.	.	2cc
=4	=4	=4	=4
0r	0r	1b-	4dd
.	.	.	4cc
.	.	.	4dd
.	.	.	4ee
.	.	2a	[1ff
.	.	2f	.
=5	=5	=5	=5
0r	1r	4a	2ff]
.	.	4g	.
.	.	4a	4ee
.	.	4b	4dd
.	1c	2.cc	1ee
.	.	8b	.
.	.	8a	.
=6	=6	=6	=6
0r	2G	4b	2dd
.	.	4a	.
.	2G	4g	2b
.	.	4f	.
.	4A	2e	1cc
.	4B	.	.
.	4c	[2a	.
.	4d	.	.
=7	=7	=7	=7
1r	1e	2a]	1b
.	.	2g#	.
1F	1f	1a	2a
.	.	.	4cc
.	.	.	4dd
=8	=8	=8	=8
2C	1e	2.cc	4ee
.	.	.	4ff
2C	.	.	2gg
.	.	4b	.
4D	2r	4a	2.ff
4E	.	4g	.
4F	[2a	2f	.
4G	.	.	8ee
.	.	.	8dd
=9	=9	=9	=9
1A	4a]	2e	2cc
.	4g	.	.
.	4e	2c	2.ee
.	4f	.	.
1B-	4g	1d	.
.	4f	.	4dd
.	4f	.	[2dd
.	8e	.	.
.	8d	.	.
=10	=10	=10	=10
1A	1e	1a	2dd]
.	.	.	2cc#
1D	2d	2r	1dd
.	2f	2a	.
=11	=11	=11	=11
1r	2e	2g	2r
.	2d	2f	1dd
2r	2.e	2g	.
2A	.	2a	2cc
.	4f	.	.
=12	=12	=12	=12
2G	2g	2d	2b
2F	2a	2f	2a
1G	2.g	2e	1b
.	.	[2d	.
.	4f	.	.
=13	=13	=13	=13
2.A	1e	2d]	2a
.	.	2c	2ee
4G	.	.	.
2F	1r	2A	2dd
2E	.	[2c	2cc
=14	=14	=14	=14
1D	1r	2c]	1dd
.	.	2B	.
4C	2r	1c	2.ee
4D	.	.	.
4E	2e	.	.
4F	.	.	8dd
.	.	.	8cc
=15	=15	=15	=15
2G	2d	1r	2b
2A	2c	.	2cc
1F	1d	2r	1a
.	.	2a	.
=16	=16	=16	=16
2E	2e	2g	2r
2A	2c	2f	2a
2G	1d	1g	2b
2B	.	.	[2dd
=17	=17	=17	=17
1A	2r	0a	2dd]
.	2e	.	2cc
2r	2d	.	2ff
2A	2c	.	[2ee
=18	=18	=18	=18
2G	1d	0r	4ee]
.	.	.	4dd
2F	.	.	1dd
2G	2.e	.	.
2A	.	.	2cc
.	4f	.	.
=19	=19	=19	=19
2.E	4g	1e	2.b
.	4a	.	.
.	2.g	.	.
4F	.	.	4a
2G	.	2d	2b
.	4f	.	.
2A	2e	2c	2cc
=20	=20	=20	=20
2D	4d	1d	4b
.	4c	.	4a
2F	4B	.	1a
.	4A	.	.
1E	1B	1e	.
.	.	.	2g#
=21	=21	=21	=21
0A	0A	0e	0a
=22	=22	=22	=22
1r	1A	0r	0r
[1A	2.c	.	.
.	4d	.	.
=23	=23	=23	=23
1A]	2e	0r	0r
.	1f	.	.
1G	.	.	.
.	2e	.	.
=24	=24	=24	=24
2F	2d	0r	0r
2.G	2.e	.	.
4F	4d	.	.
2D	[2d	.	.
=25	=25	=25	=25
1E	2d]	0r	1r
.	2c	.	.
4C	1f	.	1a
4D	.	.	.
4E	.	.	.
4F	.	.	.
=26	=26	=26	=26
2.A	1e	0a	2.cc
4B	.	.	4dd
2c	1r	.	2ee
2d	.	.	[2ff
=27	=27	=27	=27
2B	0r	1g	2ff]
2c	.	.	2ee
2d	.	2f	2dd
2c	.	[2g	[2ee
=28	=28	=28	=28
2G	1r	4g]	4ee]
.	.	4f	4dd
2B-	.	2d	1dd
1A	[1a	1e	.
.	.	.	2cc#
=29	=29	=29	=29
2D	1a]	2r	1dd
2F	.	1d	.
1E	1g	.	1ee
.	.	2c#	.
=30	=30	=30	=30
2D	2f	4d	2a
.	.	4c	.
4G	2.g	4B	1b
4A	.	4A	.
4B	.	2G	.
4c	4f	.	.
[2d	2d	2B	2g
=31	=31	=31	=31
2d]	1e	2A	0a
2c#	.	2e	.
2d	1d	2.f	.
2D	.	.	.
.	.	4g	.
=32	=32	=32	=32
2.F	2r	1a	1r
.	2A	.	.
4G	.	.	.
1A	2.c	2r	[1ee
.	.	2e	.
.	4d	.	.
=33	=33	=33	=33
1E	2.e	2.g	0ee]
.	4f	4a	.
1r	2g	2b	.
.	2a	[2cc	.
=34	=34	=34	=34
0r	2f	2cc]	1dd
.	2g	2b	.
.	2a	2a	2cc
.	2g	[2b	[2dd
=35	=35	=35	=35
0r	2d	4b]	4dd]
.	.	4a	4cc
.	2f	1a	2a
.	2.e	.	1b
.	.	2g	.
.	4d	.	.
=36	=36	=36	=36
0r	2c	2e	1a
.	2.d	2.f	.
.	.	.	2r
.	4c	4e	.
.	2A	2c	[2a
=37	=37	=37	=37
2r	1B-	1d	2a]
1d	.	.	2g
.	2A	1a	2f
2c	2a	.	2e
=38	=38	=38	=38
1B-	2g	0r	4d
.	.	.	4e
.	1f	.	4f
.	.	.	4g
2A	.	.	4a
.	.	.	4b
[2A	4e	.	4cc
.	4d	.	4dd
=39	=39	=39	=39
4A]	0c	2r	2ee
4G	.	.	.
4F	.	1a	1ff
4E	.	.	.
2F	.	.	.
2C	.	2g	2ee
=40	=40	=40	=40
2D	1A	2f	2dd
2A	.	2e	2cc#
1B-	1r	4d	1dd
.	.	4e	.
.	.	4f	.
.	.	4g	.
=41	=41	=41	=41
1A	2r	4a	2.cc
.	.	4b	.
.	1a	1cc	.
.	.	.	4b
2F	.	.	2a
2G	2g	2b	[2dd
=42	=42	=42	=42
1A	2f	2.a	2dd]
.	2e	.	2cc
.	.	4g	.
2.D	4d	4f	[1ff
.	4e	4e	.
.	4f	2d	.
4E	4g	.	.
=43	=43	=43	=43
4F	1.a	1.c	2ff]
4G	.	.	.
4A	.	.	4ee
4B	.	.	4dd
1c	.	.	4ee
.	.	.	4dd
.	2g	2e	4cc
.	.	.	4b
=44	=44	=44	=44
2d	2f	2f	2a
2B-	4e	2g	1dd
.	4d	.	.
1A	1e	1a	.
.	.	.	2cc#
=45	=45	=45	=45
0D	0d	0f#	0dd
=46	=46	=46	=46
0r	1r	0r	0dd
.	[1G	.	.
=47	=47	=47	=47
0r	1G]	0g	1dd
.	1c	.	1ee
=48	=48	=48	=48
0r	2B	1g	1dd
.	2B	.	.
.	4A	1a	2cc
.	4B	.	.
.	4c	.	2cc
.	4d	.	.
=49	=49	=49	=49
0r	1e	1g	2b
.	.	.	2cc
.	1d	2f	[1dd
.	.	2f	.
=50	=50	=50	=50
0r	2A	2e	2dd]
.	2A	2f	2cc
.	2.G	[1g	[1b
.	4A	.	.
=51	=51	=51	=51
0G	4B	2g]	1b]
.	4c	.	.
.	1d	2f	.
.	.	1e	1r
.	[2c	.	.
=52	=52	=52	=52
1G	2c]	2d	2r
.	2B	2g	1dd
1A	1r	2f	.
.	.	2e	2cc
=53	=53	=53	=53
1G	0r	2g	2b
.	.	4d	2dd
.	.	4e	.
2F	.	4f	4a
.	.	4g	4b
2F	.	2a	4cc
.	.	.	4dd
=54	=54	=54	=54
2E	1r	2g	2ee
2F	.	4f	4dd
.	.	4e	4cc
[1G	1d	4d	4b
.	.	4c	4a
.	.	4B	2g
.	.	4A	.
=55	=55	=55	=55
2G]	1d	2G	2b
2F	.	2A	2.a
2E	1e	2B	.
.	.	.	4g
2C	.	2c	[2g
=56	=56	=56	=56
1D	1d	2A	2g]
.	.	1a	2f
1A	2c	.	2e
.	2c	2e	2ee
=57	=57	=57	=57
0r	2B	1g	2dd
.	2c	.	2ee
.	[1d	2.f	2a
.	.	.	4dd
.	.	4g	4ee
=58	=58	=58	=58
0r	2d]	4a	4ff
.	.	4f	4dd
.	2c	2.g	2.ee
.	1B-	.	.
.	.	4f	4dd
.	.	4e	[2dd
.	.	4d	.
=59	=59	=59	=59
0r	1A	1e	2dd]
.	.	.	2cc#
.	2r	1d	1dd
.	2d	.	.
=60	=60	=60	=60
1F	2c	2r	1a
.	2d	2a	.
2E	2e	2g	1r
2F	4d	2a	.
.	4c	.	.
=61	=61	=61	=61
1.G	2.B	2d	0r
.	.	4g	.
.	4c	4a	.
.	4d	4b	.
.	4B	4g	.
2F	[2c	[2a	.
=62	=62	=62	=62
1E	4c]	4a]	0r
.	4B	4g	.
.	2G	1g	.
1D	1A	.	.
.	.	2f	.
=63	=63	=63	=63
4C	1e	0g	1cc
4D	.	.	.
4E	.	.	.
4F	.	.	.
2G	2d	.	2b
2E	2e	.	2cc
=64	=64	=64	=64
1D	2A	2r	2.dd
.	2d	2f	.
.	.	.	8cc
.	.	.	8b
1r	2c	2e	1a
.	2d	2f	.
=65	=65	=65	=65
0r	2G	1.g	2b
.	4c	.	1ee
.	4d	.	.
.	4e	.	.
.	4c	.	.
.	[2d	2f	2a
=66	=66	=66	=66
0r	2d]	1e	2b
.	1c	.	2cc
.	.	1d	1dd
.	2B	.	.
=67	=67	=67	=67
2r	1c	0e	2g
2A	.	.	2cc
2G	1r	.	2b
2A	.	.	2cc
=68	=68	=68	=68
4D	1r	1f	1dd
4E	.	.	.
4F	.	.	.
4G	.	.	.
1A	2r	2e	2cc
.	2c	2a	2ee
=69	=69	=69	=69
2E	2B	2g	2ee
2A	2c	1a	2ee
2D	[1d	.	4ff
.	.	.	4ee
2F	.	2a	4dd
.	.	.	4cc
=70	=70	=70	=70
2G	2d]	4g	2b
.	.	4f	.
2A	2c	4e	1a
.	.	4d	.
1E	1B	1e	.
.	.	.	2g#
=71	=71	=71	=71
0A	0A	0e	0a
==	==	==	==
*-	*-	*-	*-
!!!CDT: 1525/^1526/-1594/2/2
!!!OCY: Italia
!!!AGN: Mass (Paraphrase)
!!!AST: renaissance, vocal
!!!ASW: Prayer
!!!PWK: Masses, Book 7
!!!RNB: Cadence finals: D
!!!YOR: Le Opere Complete, v. 23, p. 1
!!!YOO: Rome, Italy: Fratelli Scalera
!!!END: 1992//
!!!EED: John Miller
!!!YEC: Copyright 2000, John Miller
!!!YEN: United States of America
!!!YEM: Rights to all derivative electronic formats reserved.
!!!YEM: Refer to licensing agreement for further details.
!!!YEM: This file must be accompanied by the licensing agreement.
!!!YEM: A copy of the licensing agreement may be found at http://www.music-cog.ohio-state.edu/HumdrumDatabases/Palestrina/license.txt
!!!EMD: converted to Humdrum by Bret Aarden
